X:70
T:T042- Lady Mc.Intoshe's Reel
S:Bremner's Reels
Q:1/4=120
L:1/4
M:C|
K:Amixolydian
f/|d/4d/4d/ d/A/ B3/4d/4e/g/| d/4d/4d/ g/d/ (BB/)e/|\
d/4d/4d/ d/A/ B3/4d/4e/(g/|f/)e/d/B/ AA/::f/|\
a3/4b/4a/f/ g/f/e/(g/|f/)d/e/d/ (BB/)f/|\
a3/4b/4a/f/ g/e/a/(g/|f/)e/d/B/ (AA/):|]

